learning-site/svg (119).svg

<svg xmlns="http://www.w3.org/2000/svg" xmlns:xlink="http://www.w3.org/1999/xlink" viewBox="0 0 100 100" version="1.1"><!-- Generator: Sketch 51.3 (57544) - http://www.bohemiancoding.com/sketch --><title>add-and-size-disks-in-azure-virtual-machines</title><desc>Created with Sketch.</desc><defs><filter x="-1.4%" y="-1.4%" width="102.9%" height="105.7%" filterUnits="objectBoundingBox" id="filter-1"><feOffset dx="0" dy="2" in="SourceAlpha" result="shadowOffsetOuter1"></feOffset><feColorMatrix values="0 0 0 0 0   0 0 0 0 0   0 0 0 0 0  0 0 0 0.0970052083 0" type="matrix" in="shadowOffsetOuter1" result="shadowMatrixOuter1"></feColorMatrix><feMerge><feMergeNode in="shadowMatrixOuter1"></feMergeNode><feMergeNode in="SourceGraphic"></feMergeNode></feMerge></filter></defs><g id="Badges-FINAL" stroke="none" stroke-width="1" fill="none" fill-rule="evenodd"><g id="Adminster-infrastructure-resources-in-Azure" transform="translate(-576.000000, -1846.000000)"><g id="add-and-size-disks-in-azure-virtual-machines" transform="translate(576.000000, 1846.000000)"><rect id="BG" fill="#D9EAF8" x="2" y="2" width="96" height="96" rx="48"></rect><path d="M27.3449567,74.1272899 L18.4411905,74.1272899 C15.4409032,74.1272899 13,71.6863866 13,68.6860994 C13,65.6858121 15.4409032,63.2449089 18.4411905,63.2449089 C18.7165345,63.2449089 18.9933278,63.2697851 19.2904119,63.3221986 C20.3425155,59.7579369 23.5881955,57.3090648 27.3449567,57.3090648 C31.9818502,57.3090648 35.7540692,61.0812838 35.7540692,65.7181773 C35.7540692,70.3550708 31.9818502,74.1272899 27.3449567,74.1272899 Z" id="Cloud" fill="#FFFFFF" fill-rule="nonzero"></path><g id="Disk" filter="url(#filter-1)" transform="translate(15.910923, 14.910923)"><path d="M27.3818141,36.637752 C24.7134803,33.9694182 24.7134803,29.6438677 27.3818141,26.9765099 C30.0501479,24.3072001 34.3756984,24.3072001 37.0440322,26.9765099 C39.712366,29.6438677 39.712366,33.9694182 37.0440322,36.637752 C34.3756984,39.3060858 30.0501479,39.3060858 27.3818141,36.637752 Z M54.2964595,9.7231066 C42.1005931,-2.47373584 22.3252533,-2.47373584 10.1293868,9.7231066 C-2.06745565,21.9189731 -2.06745565,41.6943129 10.1293868,53.8901793 C22.3252533,66.0870218 42.1005931,66.0870218 54.2964595,53.8901793 C66.493302,41.6943129 66.493302,21.9189731 54.2964595,9.7231066 Z" id="Fill-419" fill="#182A37"></path><path d="M29.4528471,34.566719 C27.9273878,33.0432117 27.9273878,30.5700742 29.4528471,29.0465669 C30.9763544,27.5211076 33.4494919,27.5211076 34.9729992,29.0465669 C36.4984585,30.5700742 36.4984585,33.0432117 34.9729992,34.566719 C33.4494919,36.0921783 30.9763544,36.0921783 29.4528471,34.566719 Z M39.1140893,24.9054768 C35.302881,21.0942686 29.1229653,21.0942686 25.311757,24.9054768 C21.5005488,28.7166851 21.5005488,34.8966008 25.311757,38.7078091 C29.1229653,42.5199933 35.302881,42.5199933 39.1140893,38.7078091 C42.9252975,34.8966008 42.9252975,28.7166851 39.1140893,24.9054768 Z" id="Fill-420" fill="#F1FCFE"></path><path d="M52.9164215,11.1031446 C49.1354686,7.32219178 44.5766585,4.79927927 39.7562852,3.51976735 L35.2287064,20.4989198 C37.1562701,21.0113101 38.9823317,22.0126673 40.4941273,23.5254388 C42.0068988,25.0372344 43.008256,26.863296 43.5206463,28.7908597 L60.4997988,24.2632809 C59.2202868,19.4429077 56.6973743,14.8840975 52.9164215,11.1031446" id="Fill-421" fill="#445B67"></path><path d="M11.5094248,52.5101413 C15.2903777,56.2910941 19.8491879,58.8140066 24.6685851,60.0935186 L29.1971399,43.1143661 C27.2695762,42.6019758 25.4435146,41.6006186 23.931719,40.0878471 C22.4189475,38.5760515 21.4175903,36.7499899 20.9052,34.8224262 L3.92604755,39.350005 C5.20555946,44.1703783 7.72847198,48.7301644 11.5094248,52.5101413" id="Fill-422" fill="#445B67"></path><g id="Add" transform="translate(41.972495, 41.566947)"><path d="M27.1421322,13.5067186 C27.1421322,20.9665832 21.0952782,27.0134372 13.6354136,27.0134372 C6.17554905,27.0134372 0.128695029,20.9665832 0.128695029,13.5067186 C0.128695029,6.04685402 6.17554905,0 13.6354136,0 C21.0952782,0 27.1421322,6.04685402 27.1421322,13.5067186" id="Fill-258" fill="#83BB66"></path><path d="M18.8303054,11.4287619 C18.8282275,11.4287619 18.8271885,11.4287619 18.8251105,11.4287619 L15.7133703,11.4287619 L15.7133703,8.31182684 C15.7133703,7.15856086 14.7824457,6.23387013 13.6354136,6.23387013 C12.4873426,6.23387013 11.5574569,7.15856086 11.5574569,8.31182684 L11.5574569,11.4287619 L8.44571676,11.4287619 C8.4436388,11.4287619 8.44259982,11.4287619 8.44052187,11.4287619 C7.29245078,11.4287619 6.36256516,12.3534526 6.36256516,13.5067186 C6.36256516,14.6495948 7.29245078,15.5846753 8.44052187,15.5846753 L11.5574569,15.5846753 L11.5574569,18.7016104 C11.5574569,19.8444866 12.4873426,20.7795671 13.6354136,20.7795671 C14.7824457,20.7795671 15.7133703,19.8444866 15.7133703,18.7016104 L15.7133703,15.5846753 L18.8303054,15.5846753 C19.9773375,15.5846753 20.9082621,14.6495948 20.9082621,13.5067186 C20.9082621,12.3534526 19.9773375,11.4287619 18.8303054,11.4287619" id="Fill-259" fill="#FFFFFE"></path></g></g><g id="Disk-Arm" transform="translate(12.000000, 29.000000)"><path d="M26.7398963,1.12592866 L5.37317433,18.2546379 C4.08043194,19.2909695 2.19234445,19.0831074 1.15601288,17.790365 C1.12634498,17.7533567 1.09755894,17.7156499 1.06967905,17.6772765 L0.567577604,16.9861932 C-0.300249154,15.7917321 -0.0354597351,14.1199175 1.15900132,13.2520907 C1.44286654,13.0458506 1.76455533,12.8975091 2.10572008,12.8155269 L2.71343121,12.6694933 C5.6943937,11.9531654 8.55033786,10.7915495 11.1849967,9.22380084 L26.171474,0.306126803 C26.408781,0.164917737 26.7156289,0.242820503 26.856838,0.480127501 C26.9843615,0.694435533 26.9344721,0.969946336 26.7398963,1.12592866 Z" id="Combined-Shape" fill="#C5CCCD"></path><path d="M3.95173002,15.2328855 C3.7894176,15.0094817 3.47673277,14.9599572 3.25332889,15.1222697 C3.02992502,15.2845821 2.98040061,15.5972669 3.14271302,15.8206708 C3.30502544,16.0440747 3.61771027,16.0935991 3.84111415,15.9312867 C4.06451802,15.7689742 4.11404243,15.4562894 3.95173002,15.2328855 Z" id="Rectangle-4" stroke="#979797" fill="#D8D8D8"></path><path d="M26.6619145,1.18844307 L6.16477575,17.6200478 L24.7251174,2.04607196 C25.3343629,1.53485427 26.030036,1.24446083 26.6619145,1.18844307 Z" id="Fill-1200" fill="#AAB0B1"></path></g><path d="M82.6891458,37.3090648 L65.7937141,37.3090648 C62.7993609,37.3090648 60.3630396,34.8727435 60.3630396,31.8783903 C60.3630396,29.5484318 61.8527038,27.5010314 64.0365228,26.7559006 C64.4923193,21.812255 68.629558,18 73.6380216,18 C78.5192084,18 82.6228553,21.6793785 83.2100561,26.4724676 C85.9610426,26.7355718 88.1198202,29.0596349 88.1198202,31.8783903 C88.1198202,34.8727435 85.683499,37.3090648 82.6891458,37.3090648 Z" id="Cloud" fill="#FFFFFF" fill-rule="nonzero" opacity="0.900000036"></path><g id="Azure-Border" stroke="#0078D4" stroke-width="4"><rect x="2" y="2" width="96" height="96" rx="48"></rect></g></g></g></g></svg>

<svg xmlns="http://www.w3.org/2000/svg" viewBox="0 0 100 100"><defs><filter x="-1.4%" y="-1.4%" width="102.9%" height="105.7%" filterUnits="objectBoundingBox" id="a"><feOffset dy="2" in="SourceAlpha" result="shadowOffsetOuter1"/><feColorMatrix values="0 0 0 0 0 0 0 0 0 0 0 0 0 0 0 0 0 0 0.0970052083 0" in="shadowOffsetOuter1" result="shadowMatrixOuter1"/><feMerge><feMergeNode in="shadowMatrixOuter1"/><feMergeNode in="SourceGraphic"/></feMerge></filter></defs><g fill="none" fill-rule="evenodd"><rect fill="#D9EAF8" x="2" y="2" width="96" height="96" rx="48"/><path d="M27.345 74.127h-8.904c-3 0-5.441-2.44-5.441-5.44 0-3.001 2.44-5.442 5.441-5.442.276 0 .552.025.85.077a8.366 8.366 0 0 1 8.054-6.013c4.637 0 8.41 3.772 8.41 8.41 0 4.636-3.773 8.408-8.41 8.408z" fill="#FFF" fill-rule="nonzero"/><g filter="url(#a)" transform="translate(15.91 14.91)"><path d="M27.382 36.638a6.83 6.83 0 0 1 0-9.661 6.83 6.83 0 0 1 9.662 0 6.832 6.832 0 0 1-9.662 9.661zM54.296 9.723c-12.195-12.197-31.97-12.197-44.167 0-12.196 12.196-12.196 31.971 0 44.167 12.196 12.197 31.972 12.197 44.167 0 12.197-12.196 12.197-31.971 0-44.167z" fill="#182A37"/><path d="M29.453 34.567a3.901 3.901 0 0 1 0-5.52 3.901 3.901 0 0 1 5.52 0 3.901 3.901 0 0 1 0 5.52 3.901 3.901 0 0 1-5.52 0zm9.661-9.662c-3.811-3.81-9.991-3.81-13.802 0-3.811 3.812-3.811 9.992 0 13.803 3.811 3.812 9.99 3.812 13.802 0 3.811-3.811 3.811-9.991 0-13.803z" fill="#F1FCFE"/><path d="M52.916 11.103a29.122 29.122 0 0 0-13.16-7.583L35.23 20.499a11.64 11.64 0 0 1 8.292 8.292L60.5 24.263a29.122 29.122 0 0 0-7.584-13.16M11.51 52.51a29.124 29.124 0 0 0 13.159 7.584l4.528-16.98a11.64 11.64 0 0 1-8.292-8.292L3.926 39.35a29.117 29.117 0 0 0 7.583 13.16" fill="#445B67"/><path d="M69.115 55.074c0 7.46-6.047 13.506-13.507 13.506S42.1 62.534 42.1 55.074s6.047-13.507 13.507-13.507 13.507 6.047 13.507 13.507" fill="#83BB66"/><path d="M60.803 52.996h-3.117v-3.117c0-1.153-.931-2.078-2.078-2.078a2.074 2.074 0 0 0-2.078 2.078v3.117h-3.117a2.074 2.074 0 0 0-2.078 2.078 2.08 2.08 0 0 0 2.078 2.078h3.117v3.117a2.08 2.08 0 0 0 2.078 2.078 2.081 2.081 0 0 0 2.078-2.078v-3.117h3.117a2.081 2.081 0 0 0 2.078-2.078c0-1.154-.931-2.078-2.078-2.078" fill="#FFFFFE"/></g><path d="M38.74 30.126L17.373 47.255a3 3 0 0 1-4.303-.578l-.502-.69a2.673 2.673 0 0 1 1.538-4.171l.607-.147a30.505 30.505 0 0 0 8.472-3.445l14.986-8.918a.5.5 0 0 1 .569.82z" fill="#C5CCCD"/><path d="M15.952 44.233a.5.5 0 1 0-.81.588.5.5 0 0 0 .81-.588z" stroke="#979797" fill="#D8D8D8"/><path d="M38.662 30.188L18.165 46.62l18.56-15.574c.61-.511 1.305-.802 1.937-.858z" fill="#AAB0B1"/><path d="M82.69 37.31H65.793a5.437 5.437 0 0 1-5.431-5.432c0-2.33 1.49-4.377 3.674-5.122A9.635 9.635 0 0 1 73.638 18c4.881 0 8.985 3.68 9.572 8.472a5.438 5.438 0 0 1 4.91 5.406 5.437 5.437 0 0 1-5.43 5.431z" fill="#FFF" fill-rule="nonzero" opacity=".9"/><g stroke="#0078D4" stroke-width="4"><rect x="2" y="2" width="96" height="96" rx="48"/></g></g></svg>
